X:1
T:Title
L:1/8
M:4/4
I:linebreak $
K:G
V:1 treble nm="Voice"
V:1
"G" dedc B2 G2 | dcd=f"C" e2 c2 |"G" d3 c Bcde |"F" =fgfd c2 F2 | A2 c2"G" B2 G2 | dedc B2 d2 | %6
"C" e2 c2"G" d3 c | B2 d2"C" c2"D" A2 |[M:2/4]"G" G4 ::[M:4/4]"G" dedc B2 d2 | g3 =f"C" e2"F" f2 | %11
"G" dedc Bcde |"F" =fgfd c2 F2 | A2 c2"G" B2 G2 | d3 c B2 d2 |"C" e2 c2"G" d3 c | %16
 B2 d2"C" c2"D" A2 |[M:2/4]"G" G4 :| %18
